docs/img/icon1/aboutUs-comma768.svg

<svg width="1727" height="2915" viewBox="0 0 1727 2915" fill="none" xmlns="http://www.w3.org/2000/svg">
<path d="M1175.99 2915H168.494C105.713 2915 48.2361 2872.64 18.4978 2837.5C-7.93624 2797.97 1.99981 2726.46 1.99981 2643L1.99981 2524C1.99981 2363 81.5 2363 81.5 2363C81.5 2363 244.218 2363 306.999 2363H428.999H770.499C1083 2363 1139.5 2217.5 1139.5 1802C1139.5 1731.5 1139.5 1726.11 1139.5 1669V1577.5L460.015 1577.5C397.234 1577.5 335.545 1577.5 290.627 1528.28C250.018 1483.78 250.018 1411.78 250.018 1210.49L250.018 441.21C250.018 151.003 257.02 92.5036 290.494 48.0026C323.968 3.50163 406.494 0.99978 484.494 0.99978L1522.49 0.99978C1585.28 0.99978 1627.99 -4.57544 1683.49 48.0026C1738.99 100.581 1721.5 357.748 1721.5 441.21L1721.5 1474.05C1721.5 1807.9 1746.63 2290.28 1685.63 2508.28C1624.63 2726.28 1550.93 2915 1175.99 2915Z" fill="#232323"/>
</svg>

<svg width="1727" height="2915" fill="none" xmlns="http://www.w3.org/2000/svg"><path d="M1175.99 2915H168.494c-62.781 0-120.258-42.36-149.996-77.5C-7.936 2797.97 2 2726.46 2 2643v-119c0-161 79.5-161 79.5-161h688.999c312.501 0 369.001-145.5 369.001-561v-224.5H460.015c-62.781 0-124.47 0-169.388-49.22-40.609-44.5-40.609-116.5-40.609-317.79V441.21c0-290.207 7.002-348.706 40.476-393.207C323.968 3.502 406.494 1 484.494 1H1522.49c62.79 0 105.5-5.575 161 47.003s38.01 309.745 38.01 393.207v1032.84c0 333.85 25.13 816.23-35.87 1034.23S1550.93 2915 1175.99 2915z" fill="#232323"/></svg>
